X:2980
T:Chinese breakdown
R:Reel
O:USA
O:England
O:Scotland
M:4/4
K:D
A2| ddBA FF2A | ddBA c3A | \
ce/c/ BA cc2B | A/A/A/A/ BA F3A |\
ddBA FF2E | D/D/D/D/ EF G3A |\
ee e/f/e/d/ cc2B | A/A/A/A/ Bc d2 ::\
A2| fa/f/ ed ff2A | fa/f/ ed c3 e|\
aa2^g =gg2e | ce/c/ B/c/B A2z=f |\
^f2af ed ff2e | d/d/d/d ef g4 |\
ee e/f/e/d/ cc2B | AABc d2:|**


